zhaoyizhou1123/decision-transformer/maze/backup/CQL/default_2023_08_17_02_06_04-s-0--stitch-cql/progress.csv
epoch,sac/log_pi,sac/policy_loss,sac/qf1_loss,sac/qf2_loss,sac/alpha_loss,sac/alpha,sac/average_qf1,sac/average_qf2,sac/average_target_q,sac/total_steps,sac/cql/cql_std_q1,sac/cql/cql_std_q2,sac/cql/cql_q1_rand,sac/cql/cql_q2_rand,sac/cql/cql_min_qf1_loss,sac/cql/cql_min_qf2_loss,sac/cql/cql_qf1_diff,sac/cql/cql_qf2_diff,sac/cql/cql_q1_current_actions,sac/cql/cql_q2_current_actions,sac/cql/cql_q1_next_actions,sac/cql/cql_q2_next_actions,sac/cql/alpha_prime_loss,sac/cql/alpha_prime,average_return,average_traj_length,train_time,eval_time,epoch_time
0,4.238946914672852,12.49632453918457,7.743236064910889,7.468450546264648,-1.184417963027954,1.322353720664978,-3.232273817062378,-3.262502670288086,-2.4147400856018066,1000,9.562222480773926,10.353594779968262,-24.437835693359375,-26.421524047851562,-15.794329643249512,-17.083215713500977,-3.1588659286499023,-3.4166431427001953,-6.0199360847473145,-6.392938137054443,-6.10676383972168,-6.544830322265625,0.0,0.0,65.95889,200.0,95.52815341949463,9.888932943344116,105.41708636283875
1,3.0293171405792236,32.443756103515625,19.137577056884766,23.27292251586914,-1.816235899925232,1.8213043212890625,-19.599475860595703,-18.78020668029785,-20.41372299194336,2000,9.905328750610352,10.670223236083984,-43.081356048583984,-45.6802864074707,-16.875465393066406,-23.40591812133789,-3.3750932216644287,-4.681183815002441,-24.794462203979492,-26.19843864440918,-24.986894607543945,-26.350854873657227,0.0,0.0,49.11058,200.0,92.32776236534119,10.387514591217041,102.71527695655823
2,3.256683349609375,103.10516357421875,55.76049041748047,70.22704315185547,-2.7197482585906982,2.305109739303589,-78.76718139648438,-81.4252700805664,-80.66481018066406,3000,30.015071868896484,27.282188415527344,-147.17625427246094,-145.5402069091797,-47.588539123535156,-56.829002380371094,-9.517707824707031,-11.365800857543945,-91.50567626953125,-95.33211517333984,-91.4595718383789,-95.3492202758789,0.0,0.0,61.425304,200.0,94.79869365692139,10.038032054901123,104.83672571182251
3,2.5777130126953125,182.15267944335938,65.9640884399414,76.80879974365234,-2.8692398071289062,3.043764352798462,-152.52398681640625,-153.4146270751953,-158.15603637695312,4000,40.35898971557617,36.6665153503418,-245.2301483154297,-237.60342407226562,-74.64543151855469,-69.48526000976562,-14.929085731506348,-13.897052764892578,-172.6376495361328,-172.29664611816406,-173.107666015625,-172.7889862060547,0.0,0.0,53.087196,200.0,91.42259669303894,10.066554307937622,101.48915100097656
4,2.78680419921875,276.7353515625,221.0076446533203,343.6139221191406,-3.89253306388855,4.042135238647461,-240.41708374023438,-244.17599487304688,-241.46279907226562,5000,58.28886413574219,52.74925231933594,-368.9269714355469,-354.7021179199219,-78.81985473632812,-36.44261169433594,-15.763970375061035,-7.288522243499756,-261.8081359863281,-257.08428955078125,-262.4927062988281,-257.7616882324219,0.0,0.0,52.504173,200.0,91.16265392303467,10.16361117362976,101.32626509666443
5,2.9265615940093994,372.333740234375,149.11944580078125,110.17741394042969,-4.920872211456299,5.373351573944092,-334.1734619140625,-339.14178466796875,-344.34368896484375,6000,72.18229675292969,66.74403381347656,-486.4410705566406,-468.2632751464844,-67.72113037109375,4.760768890380859,-13.544225692749023,0.9521538019180298,-354.2860412597656,-344.23992919921875,-355.5702819824219,-345.4493713378906,0.0,0.0,63.72575,200.0,90.79434728622437,10.352182626724243,101.14652991294861
6,2.79935359954834,475.47808837890625,528.60498046875,618.093017578125,-5.508275985717773,7.154172420501709,-448.8831787109375,-443.42266845703125,-452.92926025390625,7000,101.32685852050781,101.55474090576172,-642.2377319335938,-617.12158203125,46.81883239746094,153.59176635742188,9.36376667022705,30.718353271484375,-453.389892578125,-426.81298828125,-454.5673828125,-428.0623474121094,0.0,0.0,51.61803,200.0,91.5078752040863,10.41026759147644,101.91814279556274
7,2.6718177795410156,543.5631103515625,691.5568237304688,578.9866333007812,-6.033185005187988,9.564729690551758,-510.54534912109375,-490.9436340332031,-504.88262939453125,8000,98.0089340209961,100.84518432617188,-701.292236328125,-670.4647827148438,22.392616271972656,108.14628601074219,4.478523254394531,21.629257202148438,-517.7445678710938,-480.83935546875,-519.2994384765625,-482.55499267578125,0.0,0.0,26.463675,200.0,91.2971339225769,10.443981885910034,101.74111580848694
8,1.3735308647155762,728.693359375,1042.760986328125,1246.646728515625,-3.475104570388794,12.554159164428711,-682.222900390625,-683.3929443359375,-698.529052734375,9000,89.12560272216797,87.54981994628906,-862.1746215820312,-847.4279174804688,-7.993531227111816,92.72218322753906,-1.5987062454223633,18.544437408447266,-705.3816528320312,-691.0260620117188,-711.9915771484375,-700.5889282226562,0.0,0.0,43.153557,200.0,91.43776345252991,10.590219020843506,102.02798247337341
9,1.871327519416809,826.3297119140625,1316.985595703125,1354.296142578125,-5.193270683288574,16.041515350341797,-771.9717407226562,-771.3204956054688,-774.859619140625,10000,99.29815673828125,93.7054443359375,-973.27685546875,-956.1576538085938,17.89948272705078,32.503849029541016,3.5798966884613037,6.50076961517334,-792.0910034179688,-785.353759765625,-795.1000366210938,-788.4144287109375,0.0,0.0,61.61035,200.0,90.22004747390747,10.599322319030762,100.81936979293823
10,1.8179242610931396,905.717529296875,3873.3369140625,4845.4765625,-5.454582691192627,20.094484329223633,-852.009521484375,-834.4107666015625,-868.7938842773438,11000,100.60507202148438,99.28971862792969,-1048.058349609375,-1026.0614013671875,58.5645637512207,66.81590270996094,11.712912559509277,13.363180160522461,-871.1181030273438,-850.9684448242188,-878.7410278320312,-859.5660400390625,0.0,0.0,75.38409,200.0,91.07509732246399,11.035005807876587,102.11010313034058
11,0.6770926713943481,1054.9638671875,1295.9727783203125,1281.01513671875,-2.176250457763672,24.881135940551758,-996.0372924804688,-998.8013916015625,-1004.7088623046875,12000,93.4053726196289,89.78504943847656,-1189.30615234375,-1172.1474609375,20.908428192138672,62.38456344604492,4.181685447692871,12.476912498474121,-1030.5389404296875,-1019.24755859375,-1034.0350341796875,-1023.4697265625,0.0,0.0,51.228973,200.0,90.84403824806213,10.8071870803833,101.65122532844543
12,0.5402628183364868,1184.702880859375,1326.6920166015625,1300.688720703125,-1.839125633239746,30.088151931762695,-1127.366455078125,-1123.9384765625,-1125.317626953125,13000,105.89632415771484,102.77015686035156,-1345.4735107421875,-1323.1143798828125,39.858543395996094,97.53984069824219,7.971708297729492,19.50796890258789,-1161.3218994140625,-1145.6629638671875,-1165.7666015625,-1150.4896240234375,0.0,0.0,24.398869,200.0,90.90077304840088,10.810668230056763,101.71144127845764
13,0.364480197429657,1309.415283203125,2154.94921875,2178.884765625,-1.312401533126831,36.62562942504883,-1245.32373046875,-1237.4049072265625,-1255.693359375,14000,108.29032897949219,105.31083679199219,-1468.3277587890625,-1441.8079833984375,55.601722717285156,120.56184387207031,11.120344161987305,24.112369537353516,-1288.8486328125,-1267.1297607421875,-1293.302490234375,-1272.5130615234375,0.0,0.0,51.308216,200.0,90.14504075050354,10.987747192382812,101.13278794288635
14,0.42701923847198486,1579.243896484375,3789.686767578125,4267.67626953125,-1.6071454286575317,43.10491943359375,-1503.8026123046875,-1498.23193359375,-1529.853759765625,15000,127.71515655517578,130.90011596679688,-1768.038330078125,-1754.089111328125,94.73818969726562,170.7803955078125,18.9476375579834,34.15607833862305,-1557.4375,-1537.8785400390625,-1559.768798828125,-1542.1534423828125,0.0,0.0,30.235935,200.0,90.7799711227417,10.971542835235596,101.7515139579773
15,1.155273199081421,1714.4560546875,3709.78955078125,3808.6875,-4.582250595092773,52.7929801940918,-1608.40478515625,-1607.3323974609375,-1637.94580078125,16000,150.38632202148438,142.97361755371094,-1910.1697998046875,-1878.219970703125,104.45481872558594,147.76499938964844,20.89096450805664,29.55299949645996,-1643.3583984375,-1625.8515625,-1644.4925537109375,-1626.5567626953125,0.0,0.0,30.087149,200.0,91.09106636047363,11.198632001876831,102.28969836235046
16,0.22077690064907074,2197.40087890625,4454.2763671875,3992.5791015625,-0.9082217216491699,61.17593002319336,-2102.09033203125,-2104.53515625,-2103.40869140625,17000,145.96640014648438,146.37600708007812,-2402.655029296875,-2382.5234375,161.18344116210938,321.25128173828125,32.23668670654297,64.25025939941406,-2172.697021484375,-2150.455810546875,-2173.4404296875,-2152.185546875,0.0,0.0,37.190056,200.0,90.63577842712402,10.57900094985962,101.21477937698364
17,1.4414944648742676,2370.73681640625,5338.337890625,7329.7216796875,-6.143144130706787,70.92684936523438,-2222.76416015625,-2258.77734375,-2253.628173828125,18000,218.9678955078125,207.2401885986328,-2654.401611328125,-2630.223388671875,189.65084838867188,377.64129638671875,37.93016815185547,75.52825927734375,-2251.659912109375,-2246.87158203125,-2253.5263671875,-2249.733154296875,0.0,0.0,35.353626,200.0,89.89700984954834,10.86165189743042,100.75866174697876
18,0.8770959973335266,2578.54638671875,13183.953125,12283.4345703125,-3.9316844940185547,88.4657974243164,-2420.22900390625,-2430.347900390625,-2493.69140625,19000,203.12179565429688,180.49636840820312,-2831.266357421875,-2785.809814453125,143.8715362548828,170.97190856933594,28.774307250976562,34.19438171386719,-2475.908935546875,-2469.563720703125,-2483.77001953125,-2476.697998046875,0.0,0.0,29.362865,200.0,90.394526720047,10.984208583831787,101.37873530387878
19,-0.5921049118041992,3139.2626953125,9001.6484375,9575.7861328125,2.7035040855407715,96.15109252929688,-3068.50048828125,-3060.2412109375,-3092.102783203125,20000,127.00788879394531,118.04486083984375,-3331.57275390625,-3281.27783203125,-32.678749084472656,78.92860412597656,-6.535749912261963,15.785720825195312,-3175.45556640625,-3121.833251953125,-3174.920654296875,-3122.7177734375,0.0,0.0,88.35244,200.0,90.54712200164795,10.961521863937378,101.50864386558533
20,-0.6076825857162476,3389.98095703125,9026.41015625,8672.0546875,2.808366298675537,101.63993835449219,-3318.8154296875,-3319.668212890625,-3354.17822265625,21000,152.35894775390625,142.91473388671875,-3625.983642578125,-3590.44189453125,20.049320220947266,101.27737426757812,4.00986385345459,20.255474090576172,-3424.86328125,-3387.91650390625,-3433.36962890625,-3394.719970703125,0.0,0.0,79.68944,200.0,89.30443358421326,10.957009315490723,100.26144289970398
21,-0.40095657110214233,3783.25341796875,6582.2109375,6582.197265625,1.8184019327163696,93.23838806152344,-3692.35498046875,-3686.029296875,-3733.998779296875,22000,173.6122589111328,167.65769958496094,-4039.159423828125,-3996.938232421875,165.799072265625,330.8087158203125,33.159812927246094,66.1617431640625,-3797.736328125,-3753.28515625,-3804.669921875,-3757.30517578125,0.0,0.0,39.99668,200.0,90.36252498626709,10.962641716003418,101.32516670227051
22,-0.517815113067627,4007.884765625,12458.3955078125,12086.23828125,2.443681478500366,112.08039093017578,-3933.93017578125,-3939.54052734375,-4004.41455078125,23000,178.31246948242188,166.9501953125,-4287.93603515625,-4254.9189453125,71.73231506347656,196.02719116210938,14.34646224975586,39.20543670654297,-4049.1015625,-4017.019287109375,-4049.672607421875,-4021.81640625,0.0,0.0,83.17496,200.0,89.80287647247314,11.00891900062561,100.81179547309875
23,-0.5120376348495483,4536.66552734375,21953.107421875,21814.765625,2.4512174129486084,119.96287536621094,-4446.28515625,-4437.61669921875,-4471.4609375,24000,190.2222900390625,174.16160583496094,-4829.7578125,-4775.29833984375,19.075950622558594,86.38441467285156,3.815190315246582,17.27688217163086,-4577.4384765625,-4535.86572265625,-4574.39501953125,-4531.62060546875,0.0,0.0,82.57648,200.0,90.10282015800476,11.018112182617188,101.12093234062195
24,-0.5998762845993042,4961.994140625,16783.658203125,17604.27734375,2.9175829887390137,129.4947967529297,-4883.892578125,-4883.1513671875,-4947.5595703125,25000,193.90786743164062,161.80455017089844,-5263.18115234375,-5184.24560546875,76.72525024414062,195.9764404296875,15.345049858093262,39.195289611816406,-5021.8388671875,-4970.38427734375,-5034.77685546875,-4979.08447265625,0.0,0.0,92.16324,200.0,88.75238847732544,10.617120742797852,99.36950922012329
25,0.6862169504165649,5188.640625,18768.2578125,19077.8125,-3.3384909629821777,129.6794891357422,-4980.42333984375,-4974.91796875,-5032.0126953125,26000,272.6098937988281,250.7681884765625,-5525.93701171875,-5466.3916015625,232.7494659423828,294.793701171875,46.54989242553711,58.958740234375,-5080.53759765625,-5059.11376953125,-5081.73291015625,-5061.73193359375,0.0,0.0,90.91911,200.0,86.84151268005371,10.741253852844238,97.58276653289795
26,0.6043989658355713,5815.75634765625,21467.55859375,22454.55859375,-2.980881690979004,138.6532745361328,-5581.26171875,-5534.38330078125,-5624.6767578125,27000,263.90350341796875,238.6452178955078,-6122.46044921875,-6013.08544921875,173.53878784179688,249.2601776123047,34.70775604248047,49.85203552246094,-5715.89697265625,-5649.72607421875,-5708.49609375,-5644.28125,0.0,0.0,83.67171,200.0,86.86072659492493,10.619893312454224,97.48061990737915
27,0.9541401863098145,5867.5244140625,23059.99609375,22693.509765625,-4.653555870056152,131.2658233642578,-5651.3310546875,-5646.5576171875,-5698.107421875,28000,345.71875,286.4708557128906,-6307.12939453125,-6208.73681640625,407.42681884765625,278.58416748046875,81.48536682128906,55.716835021972656,-5711.4658203125,-5716.8056640625,-5714.95166015625,-5721.9501953125,0.0,0.0,83.95519,200.0,86.76658821105957,10.844214677810669,97.61080288887024
28,-0.47040170431137085,6537.16943359375,17412.912109375,16774.52734375,2.330813407897949,141.87448120117188,-6424.74951171875,-6413.806640625,-6483.080078125,29000,278.72064208984375,242.5691375732422,-6951.15966796875,-6857.8251953125,165.71234130859375,272.2814636230469,33.1424674987793,54.45629119873047,-6579.19921875,-6519.619140625,-6586.22216796875,-6520.7255859375,0.0,0.0,89.18992,200.0,86.61459279060364,10.845669984817505,97.46026277542114
29,0.5884567499160767,6878.3828125,27074.0078125,27696.94140625,-2.988743782043457,160.60569763183594,-6637.30908203125,-6622.1572265625,-6747.35302734375,30000,310.2060546875,208.633056640625,-7271.85498046875,-7006.6611328125,258.17230224609375,226.0824737548828,51.63446044921875,45.216495513916016,-6781.11572265625,-6700.3525390625,-6778.70458984375,-6694.62353515625,0.0,0.0,90.076744,200.0,86.76577115058899,10.700406312942505,97.4661774635315
30,0.9500811100006104,7117.97900390625,28209.681640625,26629.849609375,-4.8026604652404785,156.80465698242188,-6864.98193359375,-6836.66015625,-6893.3642578125,31000,413.18438720703125,354.385498046875,-7671.64404296875,-7528.52978515625,332.82958984375,343.1242370605469,66.56591796875,68.62484741210938,-6951.82763671875,-6913.17822265625,-6964.24951171875,-6926.70458984375,0.0,0.0,90.984085,200.0,88.10849666595459,11.255127191543579,99.36362385749817
31,-0.42567306756973267,8428.69140625,25725.390625,26100.421875,2.149517059326172,155.9740753173828,-8282.75390625,-8293.11328125,-8392.0478515625,32000,326.1763916015625,280.93963623046875,-8891.060546875,-8800.07421875,386.0867004394531,473.1247253417969,77.21733856201172,94.62494659423828,-8457.013671875,-8406.390625,-8465.916015625,-8412.7412109375,0.0,0.0,84.210526,200.0,88.24576568603516,10.495659351348877,98.74142503738403
32,0.7413325309753418,8899.91015625,36039.84375,36237.1484375,-3.960472583770752,209.00747680664062,-8532.71875,-8530.291015625,-8635.001953125,33000,434.29632568359375,366.8736877441406,-9411.9365234375,-9285.98046875,329.6571350097656,259.5751647949219,65.93142700195312,51.91503143310547,-8697.556640625,-8694.2958984375,-8698.9619140625,-8693.8974609375,0.0,0.0,93.076706,200.0,83.7240138053894,10.56524133682251,94.28925514221191
33,0.46344780921936035,8755.130859375,47869.65625,47412.6875,-2.4828457832336426,212.1590118408203,-8448.8916015625,-8482.10546875,-8556.439453125,34000,368.2909240722656,309.07574462890625,-9170.0927734375,-9072.4873046875,373.842529296875,475.68341064453125,74.76850891113281,95.13668060302734,-8609.806640625,-8615.0380859375,-8620.8388671875,-8625.25390625,0.0,0.0,92.298546,200.0,83.38725399971008,10.607300996780396,93.99455499649048
34,-0.678557276725769,9699.3720703125,23281.65234375,23167.609375,3.442669630050659,159.7345733642578,-9585.92578125,-9583.556640625,-9651.873046875,35000,277.9208679199219,212.65264892578125,-10097.486328125,-9952.244140625,185.17117309570312,280.5550537109375,37.03423309326172,56.11100769042969,-9777.1318359375,-9702.0927734375,-9792.4658203125,-9711.1953125,0.0,0.0,90.16361,200.0,82.86149215698242,10.83607792854309,93.69757008552551
35,-0.3271040618419647,9719.2685546875,25430.0,24555.5,1.6178632974624634,140.61428833007812,-9568.4599609375,-9565.71875,-9684.74609375,36000,305.697021484375,256.14154052734375,-10134.6298828125,-10023.6689453125,218.57452392578125,329.57147216796875,43.71490478515625,65.91429138183594,-9732.40625,-9668.3154296875,-9736.9482421875,-9672.8935546875,0.0,0.0,88.1317,200.0,88.07872748374939,11.543813943862915,99.6225414276123
36,-0.26387518644332886,10283.3408203125,31256.640625,32734.376953125,1.3377561569213867,159.1193389892578,-10113.341796875,-10109.2451171875,-10229.853515625,37000,414.4639892578125,359.5414123535156,-10867.5302734375,-10734.5390625,405.13348388671875,588.3656005859375,81.02669525146484,117.67312622070312,-10283.5029296875,-10213.3203125,-10295.330078125,-10222.078125,0.0,0.0,89.197754,200.0,90.63295817375183,11.824491739273071,102.4574499130249
37,0.5041475296020508,11083.052734375,59531.421875,61163.921875,-2.6957859992980957,210.02281188964844,-10726.7734375,-10757.826171875,-10825.51953125,38000,418.41845703125,345.9678955078125,-11573.720703125,-11418.8544921875,383.3290100097656,494.9300537109375,76.66580200195312,98.98600769042969,-10916.6796875,-10892.953125,-10933.716796875,-10905.1640625,0.0,0.0,94.457596,200.0,91.32319402694702,11.796647310256958,103.11984133720398
38,-0.6432287096977234,11734.0849609375,50957.859375,53060.3203125,3.4996447563171387,230.6144561767578,-11571.755859375,-11590.56640625,-11692.5107421875,39000,386.51116943359375,315.6250915527344,-12292.087890625,-12149.525390625,310.75897216796875,500.150390625,62.15179443359375,100.03007507324219,-11817.8564453125,-11751.7841796875,-11828.4833984375,-11761.9814453125,0.0,0.0,91.09915,200.0,89.87582898139954,11.547288417816162,101.4231173992157
39,0.5544469952583313,11539.6640625,60296.7109375,61780.4296875,-3.030843734741211,236.6131134033203,-11219.154296875,-11238.396484375,-11257.6240234375,40000,531.669921875,446.83477783203125,-12220.1298828125,-12053.6796875,619.8450317382812,700.1456298828125,123.96900177001953,140.0291290283203,-11340.6337890625,-11327.78125,-11355.978515625,-11339.58984375,0.0,0.0,84.19977,200.0,89.13237762451172,11.726684093475342,100.85906171798706
40,-0.7485765814781189,12692.3427734375,45302.828125,48319.7734375,4.069140434265137,229.4849090576172,-12600.6630859375,-12616.6357421875,-12740.716796875,41000,394.55963134765625,308.8614501953125,-13306.3701171875,-13141.0419921875,153.25979614257812,311.6850280761719,30.651958465576172,62.337005615234375,-12830.3125,-12759.9404296875,-12832.3193359375,-12758.5537109375,0.0,0.0,93.28258,200.0,88.25813031196594,11.716998815536499,99.97512912750244
41,-0.4220706820487976,13941.70703125,45720.75,46097.87109375,2.1825828552246094,176.11392211914062,-13706.228515625,-13705.22265625,-13846.17578125,42000,435.8746337890625,377.047607421875,-14566.103515625,-14426.900390625,-50.34238815307617,76.49739074707031,-10.068477630615234,15.299478530883789,-13993.6083984375,-13912.072265625,-14012.9345703125,-13916.7841796875,0.0,0.0,90.58116,200.0,88.01393604278564,11.66407585144043,99.67801189422607
42,-0.4288358986377716,13805.669921875,44498.94921875,43932.1171875,2.211052417755127,173.4588623046875,-13579.12109375,-13588.75390625,-13747.8935546875,43000,495.9374694824219,438.84808349609375,-14471.1689453125,-14366.3466796875,572.7713623046875,646.8549194335938,114.55426788330078,129.37098693847656,-13808.0751953125,-13747.5263671875,-13816.7158203125,-13757.2998046875,0.0,0.0,89.07042,200.0,87.3797812461853,11.506343126296997,98.8861243724823
43,-0.5290303826332092,14603.89453125,65771.796875,58669.25,2.861694097518921,223.4793243408203,-14393.5078125,-14404.169921875,-14596.267578125,44000,438.40069580078125,381.11322021484375,-15225.453125,-15108.7919921875,431.4383544921875,526.3003540039062,86.28767395019531,105.26007080078125,-14694.228515625,-14616.2578125,-14705.4287109375,-14623.2861328125,0.0,0.0,83.491455,200.0,86.88313317298889,11.608063697814941,98.49119687080383
44,1.0965160131454468,16071.021484375,62238.2734375,61446.1640625,-6.173974990844727,278.81207275390625,-15513.48046875,-15528.30078125,-15696.8134765625,45000,692.9564208984375,593.961669921875,-16921.787109375,-16683.646484375,494.48046875,593.8319091796875,98.8960952758789,118.76638793945312,-15725.267578125,-15665.009765625,-15726.34375,-15663.078125,0.0,0.0,89.04736,200.0,86.89347052574158,11.599141836166382,98.49261236190796
45,-0.6261354088783264,16725.484375,51172.26953125,50813.5,3.4620721340179443,251.9600830078125,-16525.197265625,-16500.8515625,-16708.806640625,46000,464.56182861328125,375.92596435546875,-17418.779296875,-17211.357421875,-104.09225463867188,-45.571170806884766,-20.818450927734375,-9.11423397064209,-16875.044921875,-16758.869140625,-16881.640625,-16765.5234375,0.0,0.0,90.29135,200.0,87.03983545303345,11.639464855194092,98.67930030822754
46,-0.37151968479156494,17133.01171875,51203.078125,45843.58984375,1.9575707912445068,194.23916625976562,-16916.416015625,-16949.3046875,-17134.01953125,47000,483.63568115234375,395.25177001953125,-17801.734375,-17645.837890625,475.08404541015625,341.0225830078125,95.01680755615234,68.20451354980469,-17181.650390625,-17142.814453125,-17180.279296875,-17147.31640625,0.0,0.0,85.68113,200.0,87.5513322353363,11.519073963165283,99.07040619850159
47,0.8555425405502319,17628.681640625,62290.8046875,62465.10546875,-4.629237651824951,223.82838439941406,-17281.99609375,-17281.1875,-17364.1328125,48000,689.955810546875,595.9442138671875,-18530.646484375,-18344.009765625,873.794921875,927.0986328125,174.7589874267578,185.4197235107422,-17378.451171875,-17373.55859375,-17397.2578125,-17385.40625,0.0,0.0,86.87228,200.0,86.7358705997467,12.230882167816162,98.96675276756287
48,0.2051796317100525,17408.86328125,90918.46875,92073.265625,-1.1600925922393799,285.4406433105469,-17107.50390625,-17097.7890625,-17352.76953125,49000,546.8665771484375,484.100341796875,-18109.763671875,-17978.599609375,872.1631469726562,893.169921875,174.43263244628906,178.6339874267578,-17287.83203125,-17264.33984375,-17296.1875,-17278.244140625,0.0,0.0,93.465034,200.0,91.52773571014404,11.807277202606201,103.33501291275024
49,0.5575316548347473,18609.69140625,107457.171875,105986.53125,-3.2409300804138184,334.6205749511719,-18166.46484375,-18169.8984375,-18347.34765625,50000,758.8914184570312,662.910400390625,-19619.369140625,-19351.703125,873.5859375,1133.4168701171875,174.71719360351562,226.68338012695312,-18380.1484375,-18290.529296875,-18392.498046875,-18300.865234375,0.0,0.0,86.06981,200.0,84.20633125305176,8.413297891616821,92.61962914466858
